mimes/scalable/application-vnd.ms-excel.svg

<?xml version="1.0" encoding="UTF-8" standalone="no"?>
<svg
   xmlns:dc="http://purl.org/dc/elements/1.1/"
   xmlns:cc="http://creativecommons.org/ns#"
   xmlns:rdf="http://www.w3.org/1999/02/22-rdf-syntax-ns#"
   xmlns:svg="http://www.w3.org/2000/svg"
   xmlns="http://www.w3.org/2000/svg"
   xmlns:sodipodi="http://sodipodi.sourceforge.net/DTD/sodipodi-0.dtd"
   xmlns:inkscape="http://www.inkscape.org/namespaces/inkscape"
   width="48"
   height="48"
   viewBox="0 0 12.7 12.7"
   version="1.1"
   id="svg4"
   sodipodi:docname="application-vnd.ms-excel.svg"
   inkscape:version="0.92.3 (2405546, 2018-03-11)">
  <metadata
     id="metadata10">
    <rdf:RDF>
      <cc:Work
         rdf:about="">
        <dc:format>image/svg+xml</dc:format>
        <dc:type
           rdf:resource="http://purl.org/dc/dcmitype/StillImage" />
        <dc:title></dc:title>
      </cc:Work>
    </rdf:RDF>
  </metadata>
  <defs
     id="defs8" />
  <sodipodi:namedview
     pagecolor="#ffffff"
     bordercolor="#666666"
     borderopacity="1"
     objecttolerance="10"
     gridtolerance="10"
     guidetolerance="10"
     inkscape:pageopacity="0"
     inkscape:pageshadow="2"
     inkscape:window-width="1366"
     inkscape:window-height="715"
     id="namedview6"
     showgrid="false"
     showguides="true"
     inkscape:guide-bbox="true"
     inkscape:snap-global="true"
     inkscape:zoom="10.979167"
     inkscape:cx="24"
     inkscape:cy="24"
     inkscape:window-x="0"
     inkscape:window-y="27"
     inkscape:window-maximized="1"
     inkscape:current-layer="svg4"
     inkscape:measure-start="0,0"
     inkscape:measure-end="0,0" />
  <path
     inkscape:connector-curvature="0"
     style="opacity:1;fill:#008000;fill-opacity:1;fill-rule:nonzero;stroke:none;stroke-width:0.50711805;stroke-linecap:round;stroke-linejoin:bevel;stroke-miterlimit:4;stroke-dasharray:none;stroke-opacity:1"
     d="m 7.3492433,0.0566603 c -0.040983,0 -0.078161,0.0127642 -0.1049033,0.0330729 C 7.218411,0.1094229 7.202933,0.1367362 7.201965,0.1667311 7.3445127,0.2235372 7.4736634,0.30302596 7.5802366,0.40909358 7.76971,0.59766786 7.8931916,0.85276088 7.9104491,1.1392812 h 0.00672 v 0.068213 0.1441772 0.1369425 0.1927531 c 0,0.2812905 0.2266883,0.5079794 0.5079795,0.5079794 h 0.1183391 l -5.291e-4,0.00568 h 1.6924064 c 0.329951,0 0.613684,0.1491999 0.819072,0.3731038 V 1.141865 0.56463964 c 0,-0.14064565 -0.05654,-0.26789289 -0.148312,-0.35966798 C 10.814345,0.11319656 10.687101,0.0566603 10.546455,0.0566603 H 9.0462851 7.7864139 Z"
     id="path965" />
  <path
     style="opacity:1;fill:#333333;fill-opacity:1;fill-rule:nonzero;stroke:none;stroke-width:0.50711805;stroke-linecap:round;stroke-linejoin:bevel;stroke-miterlimit:4;stroke-dasharray:none;stroke-opacity:1"
     d="m 2.9460732,0.55206094 c -0.6285519,0 -1.134298,0.50626306 -1.134298,1.13481446 v 9.9012056 c 0,0.628551 0.5057461,1.134814 1.134298,1.134814 h 4.2855261 2.522327 c 0.6285527,0 1.1342987,-0.506263 1.1342987,-1.134814 V 3.6728008 h -0.01292 C 10.810197,3.1070068 10.337709,2.6687276 9.7539263,2.6687276 h -1.692403 v 0 l -0.11781,-0.00568 C 7.6627483,2.6495013 7.4357343,2.4363589 7.4357343,2.1550682 V 1.9623107 1.8253682 1.6811909 1.612978 h -0.0067 C 7.3941823,1.0346118 6.9321933,0.5804805 6.3510473,0.55464473 l -5.29e-4,-0.002585 h -0.02015 z"
     id="path833"
     inkscape:connector-curvature="0" />
  <path
     style="opacity:1;fill:#cccccc;fill-opacity:1;fill-rule:nonzero;stroke:none;stroke-width:0.50711805;stroke-linecap:round;stroke-linejoin:bevel;stroke-miterlimit:4;stroke-dasharray:none;stroke-opacity:1"
     d="m 6.4269983,1.0791605 c 0.263277,0.019482 0.470254,0.2359637 0.470255,0.504362 v 0.2563151 0.125057 0.092501 c 0,0.5757933 0.427721,1.0388807 0.982369,1.1136271 v 0 l 1.962134,0.026872 c 0.2812647,0.00385 0.5079787,0.2266886 0.5079797,0.5079793 V 5.7894678 11.68575 c 0,0.281291 -0.226688,0.50798 -0.5079797,0.50798 H 7.2315993 2.8582236 c -0.281291,0 -0.50798,-0.226689 -0.50798,-0.50798 V 1.5892069 c 0,-0.2812907 0.226689,-0.5079794 0.50798,-0.5079794 h 3.5692907 z"
     id="path901-5"
     inkscape:connector-curvature="0" />
  <path
     inkscape:connector-curvature="0"
     style="color:#000000;opacity:1;color-interpolation:sRGB;color-interpolation-filters:linearRGB;fill:#008000;stroke-width:0.52916664;color-rendering:auto;image-rendering:auto;shape-rendering:auto;text-rendering:auto"
     d="m 3.6928711,5.5562503 c -0.146579,0 -0.264584,0.1180042 -0.264584,0.2645834 V 11.1125 c 0,0.14658 0.118005,0.264584 0.264584,0.264584 h 5.2916662 c 0.146579,0 0.264583,-0.118004 0.264583,-0.264584 V 5.8208337 c 0,-0.1465792 -0.118004,-0.2645834 -0.264583,-0.2645834 z m 0,0.2645834 H 8.9845373 V 11.1125 H 3.6928711 V 6.085417 Z M 3.9574541,6.085417 V 6.6145836 H 5.2803713 V 6.085417 Z m 1.7197922,0 v 0.5291666 h 1.322916 V 6.085417 Z m 1.719791,0 v 0.5291666 h 1.322917 V 6.085417 Z M 3.9574541,7.1437503 V 7.672917 H 5.2803713 V 7.1437503 Z m 1.7197922,0 V 7.672917 h 1.322916 V 7.1437503 Z m 1.719791,0 V 7.672917 h 1.322917 V 7.1437503 Z M 3.9574541,8.2020836 V 8.7312503 H 5.2803713 V 8.2020836 Z m 1.7197922,0 v 0.5291667 h 1.322916 V 8.2020836 Z m 1.719791,0 v 0.5291667 h 1.322917 V 8.2020836 Z M 3.9574541,9.260417 V 9.7895836 H 5.2803713 V 9.260417 Z m 1.7197922,0 v 0.5291666 h 1.322916 V 9.260417 Z m 1.719791,0 v 0.5291666 h 1.322917 V 9.260417 Z M 3.9574541,10.31875 v 0.529167 H 5.2803713 V 10.31875 Z m 1.7197922,0 v 0.529167 h 1.322916 V 10.31875 Z m 1.719791,0 v 0.529167 h 1.322917 V 10.31875 Z"
     id="path31" />
  <path
     inkscape:connector-curvature="0"
     style="line-height:normal;text-indent:0;text-align:start;text-decoration:none;text-decoration-line:none;text-transform:none;stroke-width:0.26458332;marker:none;fill:#008000;fill-opacity:1"
     d="M 3.4787338,1.9800431 4.2523994,3.261348 3.4206457,4.6258765 H 4.0426569 L 4.6026115,3.6249097 5.162927,4.6258765 H 5.8259488 L 4.9773579,3.292136 5.7604043,1.9800431 H 5.1346646 L 4.6326779,2.9320621 4.1195064,1.9800431 Z"
     id="path33-3" />
</svg>

<?xml version="1.0" encoding="UTF-8" standalone="no"?><svg xmlns:dc="http://purl.org/dc/elements/1.1/" xmlns:cc="http://creativecommons.org/ns#" xmlns:rdf="http://www.w3.org/1999/02/22-rdf-syntax-ns#" xmlns="http://www.w3.org/2000/svg" width="48" height="48" viewBox="0 0 12.7 12.7"><metadata><rdf:RDF><cc:Work><dc:format>image/svg+xml</dc:format><dc:type rdf:resource="http://purl.org/dc/dcmitype/StillImage"/><dc:title/></cc:Work></rdf:RDF></metadata><path d="M7.35.06a.17.17 0 0 0-.1.03.1.1 0 0 0-.05.08 1.12 1.12 0 0 1 .71.97v.55c0 .27.23.5.52.5h1.81c.33 0 .6.15.81.38V.56a.5.5 0 0 0-.5-.5H7.79z" fill="green"/><path d="M2.95.55c-.63 0-1.14.5-1.14 1.14v9.9c0 .63.5 1.13 1.14 1.13H9.75c.63 0 1.14-.5 1.14-1.13V3.67h-.01c-.07-.56-.54-1-1.13-1H7.94a.52.52 0 0 1-.5-.51V1.6h-.01A1.12 1.12 0 0 0 6.35.55h-.02z" fill="#333"/><path d="M6.43 1.08a.5.5 0 0 1 .47.5v.48c0 .57.42 1.04.98 1.11l1.96.03c.28 0 .51.22.51.5v7.99a.5.5 0 0 1-.5.5H2.85a.5.5 0 0 1-.51-.5V1.59c0-.28.23-.5.5-.5h3.58z" fill="#ccc"/><path d="M3.7 5.56a.26.26 0 0 0-.27.26v5.3c0 .14.12.26.26.26H9c.14 0 .26-.12.26-.27V5.82a.26.26 0 0 0-.27-.26zm0 .26h5.28v5.3H3.7V6.08zm.26.27v.52h1.32V6.1zm1.72 0v.52H7V6.1zm1.72 0v.52h1.32V6.1zM3.96 7.14v.53h1.32v-.53zm1.72 0v.53H7v-.53zm1.72 0v.53h1.32v-.53zM3.96 8.2v.53h1.32V8.2zm1.72 0v.53H7V8.2zm1.72 0v.53h1.32V8.2zM3.96 9.26v.53h1.32v-.53zm1.72 0v.53H7v-.53zm1.72 0v.53h1.32v-.53zm-3.44 1.06v.53h1.32v-.53zm1.72 0v.53H7v-.53zm1.72 0v.53h1.32v-.53z" color="#000" fill="green"/><path style="line-height:normal;text-indent:0;text-align:start;text-decoration-line:none;text-transform:none;marker:none" d="M3.48 1.98l.77 1.28-.83 1.37h.62l.56-1 .56 1h.67l-.85-1.34.78-1.31h-.63l-.5.95-.51-.95z" fill="green"/></svg>
